X: 8523
T: Creelman, The
R: reel
M: 4/4
K: Gminor
dedB d c3|BcBG FE C2|dedB d c3|d e2 f2 f g2|dedB d c3|
BcBG FE C2-|CC D (3EDC65/64 E3|E3 F ED B2|D B2 B2 c3|BcBG FE C2|
dedB d c3|d e2 f2 f g2|dedB d c3|BcBG FE C2-|CC D (3EDC65/64 E3|
E3 F ED B2|D B2 B2 d=ef/=e/|d g2 g f d2 c|dB G3{B} c2 f-|f g2 f a3 f|
g2 c3 d =ef/=e/|d g2 g f d2 c|dB G3 =e2 e|f=edc B=A f2|=A f2 f2 d=ef/=e/|
d g2 g f d2 c|dB G3 B F2|B =E2 B F2 B=E-|=EB F3 d=ef/=e/|d g2 g f d2 c|dB G3 f3|gf=ed f =e3||

